dist/icons/svgs/shield-solid.svg

<svg xmlns="http://www.w3.org/2000/svg" width="24" height="24" fill="currentcolor" class="icon-shield-solid" viewBox="0 0 24 24">
  <path d="M12.0002 2C12.1564 2 12.3517 2.03906 12.508 2.11719L19.8517 5.24219C20.7111 5.63281 21.3752 6.45312 21.3752 7.46875C21.3361 11.375 19.7345 18.4453 13.0158 21.6875C12.3517 22 11.6095 22 10.9455 21.6875C4.22674 18.4453 2.62517 11.375 2.62517 7.46875C2.58611 6.45312 3.25017 5.63281 4.10955 5.24219L11.4533 2.11719C11.6095 2.03906 11.8049 2 12.0002 2Z"/>
</svg>

<svg xmlns="http://www.w3.org/2000/svg" width="24" height="24" fill="currentColor" class="icon-shield-solid" viewBox="0 0 24 24">
  <path d="M12 2c.156 0 .352.04.508.117l7.344 3.125c.86.39 1.523 1.211 1.523 2.227-.039 3.906-1.64 10.976-8.36 14.218a2.4 2.4 0 0 1-2.07 0c-6.718-3.242-8.32-10.312-8.32-14.218-.039-1.016.625-1.836 1.485-2.227l7.343-3.125C11.61 2.04 11.805 2 12 2"/>
</svg>
